dist/projects/justice/icons/drama.svg

<svg width="80" height="80" viewBox="0 0 80 80" fill="none" xmlns="http://www.w3.org/2000/svg">
<g clip-path="url(#clip0)">
<path d="M74.9285 3.1296L73.6388 2.80848C59.347 -0.750564 44.4006 -0.750564 30.1088 2.80848L28.8204 3.1296C25.8369 3.87188 23.7435 6.55261 23.7467 9.62705V18.953C17.0884 20.8392 10.6688 23.4859 4.61604 26.8409L3.44669 27.4851C0.756803 28.971 -0.570156 32.1023 0.232298 35.0688L4.13012 49.6438C7.64404 62.725 17.314 73.2714 30.0415 77.9049L34.0596 79.3784C38.8259 81.0925 44.1554 79.6616 47.4214 75.7899L50.1649 72.5127C52.7188 69.4743 54.8148 66.0794 56.3877 62.4346C57.232 62.107 58.0371 61.6832 58.7866 61.1731L62.29 58.7206C73.3851 50.9465 79.9944 38.2518 80.0009 24.7043V9.62705C80.0042 6.55327 77.9114 3.87254 74.9285 3.1296ZM48.114 70.7914L45.3698 74.0712C42.8284 77.0822 38.6834 78.1953 34.9759 76.8611L30.9577 75.3883C19.0517 71.053 10.0056 61.1868 6.71798 48.9499L2.81885 34.3749C2.33882 32.5974 3.13343 30.7224 4.74487 29.8316L5.91291 29.1874C11.5641 26.0541 17.5449 23.5565 23.7467 21.7404V24.7043C23.7559 36.7018 28.9506 48.1089 37.9934 55.9928C35.6377 56.9502 33.1506 57.548 30.6163 57.7645L20.5441 58.5813C19.9346 58.6297 19.4349 59.0849 19.3303 59.6879C19.2257 60.2908 19.5429 60.8879 20.1007 61.1384L33.4534 67.1656C36.361 68.4835 39.7945 67.5652 41.6571 64.9715L44.5791 60.9069L44.9611 61.1744C46.9878 62.5896 49.4017 63.3476 51.8738 63.3443C52.2754 63.3443 52.6639 63.2933 53.0589 63.2548C51.7136 65.9531 50.0538 68.4828 48.114 70.7914ZM40.355 57.9011C40.7206 58.1693 41.077 58.4583 41.453 58.7206L42.3804 59.3694L39.4767 63.4097C38.3583 64.9643 36.2982 65.5137 34.554 64.7223L25.9324 60.8382L30.8321 60.4367C34.1309 60.16 37.3551 59.302 40.355 57.9011ZM77.3221 24.7043C77.3169 37.3781 71.134 49.2527 60.7551 56.5258L57.2516 58.9783C54.0196 61.23 49.7274 61.23 46.496 58.9783L42.9939 56.5258C32.6143 49.2533 26.4307 37.3781 26.4255 24.7043V9.62705C26.4255 7.78343 27.6799 6.17657 29.4686 5.72923L30.7582 5.40681C44.6236 1.95306 59.124 1.95306 72.9894 5.40681L74.2791 5.72923C76.0671 6.17657 77.3221 7.78343 77.3221 9.62705V24.7043Z" fill="white"/>
<path d="M46.9079 25.1426L48.7346 23.1819C44.547 19.0042 37.7683 19.0042 33.5808 23.1819L33.5141 23.2486L35.4748 25.0759C36.9934 23.5566 39.0574 22.7084 41.2051 22.7208C43.3535 22.7339 45.407 23.6057 46.9079 25.1426Z" fill="white"/>
<path d="M55.0109 23.1819L54.9442 23.2486L56.9049 25.0759C58.4235 23.5566 60.4875 22.7084 62.6352 22.7208C64.7836 22.7339 66.8371 23.6057 68.3381 25.1426L70.1647 23.1819C65.9771 19.0042 59.1985 19.0042 55.0109 23.1819Z" fill="white"/>
<path d="M19.0981 44.5545C21.1922 43.9927 23.4243 44.3008 25.2875 45.4086L26.536 43.0366C21.4113 40.0779 14.8582 41.8332 11.8989 46.9573L11.8524 47.039L13.0107 47.7087L14.216 48.2954C15.2781 46.4459 17.036 45.0986 19.0981 44.5545Z" fill="white"/>
<path d="M66.3662 37.6109L56.4267 39.4192C53.4157 39.9685 50.3302 39.9685 47.3192 39.4192L37.3778 37.6109C36.7774 37.5017 36.1783 37.8123 35.9226 38.3669C35.6663 38.9215 35.8173 39.5788 36.2902 39.9653L47.6324 49.2422C50.1019 51.2526 53.644 51.2526 56.1135 49.2422L67.4538 39.9627C67.9266 39.5761 68.0783 38.9189 67.822 38.3643C67.5662 37.8097 66.9672 37.499 66.3662 37.6083V37.6109ZM54.4177 47.171C52.9363 48.3789 50.8096 48.3789 49.3283 47.171L41.9963 41.1732L46.8404 42.0535C50.1673 42.6617 53.576 42.6617 56.9022 42.0535L61.747 41.1732L54.4177 47.171Z" fill="white"/>
</g>
<defs>
<clipPath id="clip0">
<rect width="80" height="80" fill="white"/>
</clipPath>
</defs>
</svg>

<svg width="80" height="80" fill="none" xmlns="http://www.w3.org/2000/svg"><g clip-path="url(#clip0)" fill="#fff"><path d="M74.928 3.13l-1.29-.322a90.07 90.07 0 00-43.53 0l-1.288.322a6.689 6.689 0 00-5.073 6.497v9.326a90.14 90.14 0 00-19.131 7.888l-1.17.644A6.673 6.673 0 00.233 35.07L4.13 49.644a41.546 41.546 0 0025.912 28.26l4.018 1.474a12.116 12.116 0 0013.36-3.588l2.744-3.277a40.764 40.764 0 006.223-10.078c.844-.328 1.65-.752 2.399-1.262l3.503-2.452A41.56 41.56 0 0080 24.704V9.627a6.69 6.69 0 00-5.072-6.497zM48.114 70.79l-2.744 3.28a9.425 9.425 0 01-10.394 2.79l-4.018-1.473A38.87 38.87 0 016.718 48.95l-3.9-14.575a4 4 0 011.927-4.543l1.168-.645a87.474 87.474 0 0117.834-7.447v2.964a41.552 41.552 0 0014.246 31.289 25.318 25.318 0 01-7.377 1.771l-10.072.817a1.34 1.34 0 00-.443 2.557l13.352 6.028a6.696 6.696 0 008.204-2.194l2.922-4.065.382.267a12.048 12.048 0 006.913 2.17c.401 0 .79-.05 1.185-.09a38.235 38.235 0 01-4.945 7.537zM40.355 57.9c.366.268.722.557 1.098.82l.927.648-2.903 4.04a4.019 4.019 0 01-4.923 1.313l-8.622-3.884 4.9-.401a28.047 28.047 0 009.523-2.536zm36.967-33.197a38.876 38.876 0 01-16.567 31.822l-3.503 2.452a9.407 9.407 0 01-10.756 0l-3.502-2.452a38.875 38.875 0 01-16.569-31.822V9.627A4.018 4.018 0 0129.47 5.73l1.29-.322a87.36 87.36 0 0142.23 0l1.29.322a4.018 4.018 0 013.043 3.898v15.077z"/><path d="M46.908 25.143l1.827-1.961c-4.188-4.178-10.967-4.178-15.154 0l-.067.067 1.96 1.827a8.037 8.037 0 0111.434.067zm8.102-1.961l-.066.067 1.96 1.827a8.037 8.037 0 0111.434.067l1.827-1.961c-4.188-4.178-10.967-4.178-15.154 0zM19.098 44.554a8.036 8.036 0 016.19.855l1.248-2.372c-5.125-2.96-11.678-1.204-14.637 3.92l-.047.082 1.159.67 1.205.586a7.977 7.977 0 014.882-3.74zm47.268-6.944l-9.94 1.81a25.43 25.43 0 01-9.107 0l-9.941-1.81a1.339 1.339 0 00-1.088 2.355l11.342 9.277a6.717 6.717 0 008.482 0l11.34-9.28a1.339 1.339 0 00-1.088-2.354v.003zm-11.948 9.561a4.027 4.027 0 01-5.09 0l-7.332-5.998 4.844.88c3.327.609 6.736.609 10.062 0l4.845-.88-7.33 5.998z"/></g><defs><clipPath id="clip0"><path fill="#fff" d="M0 0h80v80H0z"/></clipPath></defs></svg>
